_includes/icons/color-google-docs.svg

<svg fill="#666" height="50" viewBox="0 0 48 48" width="50" xmlns="http://www.w3.org/2000/svg"><path d="m37 45h-26c-1.65625 0-3-1.34375-3-3v-36c0-1.65625 1.34375-3 3-3h19l10 10v29c0 1.65625-1.34375 3-3 3z" fill="#2196f3"/><path d="m40 13h-10v-10z" fill="#bbdefb"/><path d="m30 13 10 10v-10z" fill="#1565c0"/><g fill="#e3f2fd"><path d="m15 23h18v2h-18z"/><path d="m15 27h18v2h-18z"/><path d="m15 31h18v2h-18z"/><path d="m15 35h10v2h-10z"/></g></svg>

<svg xmlns="http://www.w3.org/2000/svg" viewBox="0 0 48 48" width="50" height="50" fill="#666"><path d="M 37 45 L 11 45 C 9.34375 45 8 43.65625 8 42 L 8 6 C 8 4.34375 9.34375 3 11 3 L 30 3 L 40 13 L 40 42 C 40 43.65625 38.65625 45 37 45 Z" fill="#2196f3"/><path d="M 40 13 L 30 13 L 30 3 Z" fill="#bbdefb"/><path d="M 30 13 L 40 23 L 40 13 Z" fill="#1565c0"/><path d="M 15 23 L 33 23 L 33 25 L 15 25 Z" fill="#e3f2fd"/><path d="M 15 27 L 33 27 L 33 29 L 15 29 Z" fill="#e3f2fd"/><path d="M 15 31 L 33 31 L 33 33 L 15 33 Z" fill="#e3f2fd"/><path d="M 15 35 L 25 35 L 25 37 L 15 37 Z" fill="#e3f2fd"/></svg>
